22x22/actions/kdenlive-unselect-all.svg

<svg xmlns="http://www.w3.org/2000/svg" viewBox="0 0 22 22"><path style="fill:currentColor;fill-opacity:1;stroke:none;color:#5d656b" d="M3 3v4h1V4h3V3H3zm12 0v1h3v3h1V3h-4zM5 5v5h5V5H5zm7 0v5h5V5h-5zM6 6h3v3H6V6zm7 0h3v3h-3V6zm-8 6v5h5v-5H5zm7 0v5h1v-4h4v-1h-5zm-6 1h3v3H6v-3zm-3 2v4h4v-1H4v-3H3z"/><path style="fill:#da4453;fill-opacity:1;stroke:none" d="m14.707 14-.707.707 1.793 1.793L14 18.293l.707.707 1.793-1.793L18.293 19l.707-.707-1.793-1.793L19 14.707 18.293 14 16.5 15.793 14.707 14z"/></svg>

<svg xmlns="http://www.w3.org/2000/svg" viewBox="0 0 22 22">
  <defs id="defs3051">
    <style type="text/css" id="current-color-scheme">
      .ColorScheme-Text {
        color:#5d656b;
      }
      </style>
  </defs>
 <path 
     style="fill:currentColor;fill-opacity:1;stroke:none" 
     d="M 3 3 L 3 4 L 3 7 L 4 7 L 4 4 L 7 4 L 7 3 L 4 3 L 3 3 z M 15 3 L 15 4 L 18 4 L 18 7 L 19 7 L 19 3 L 15 3 z M 5 5 L 5 10 L 10 10 L 10 5 L 5 5 z M 12 5 L 12 10 L 17 10 L 17 5 L 12 5 z M 6 6 L 9 6 L 9 9 L 6 9 L 6 6 z M 13 6 L 16 6 L 16 9 L 13 9 L 13 6 z M 5 12 L 5 17 L 10 17 L 10 12 L 5 12 z M 12 12 L 12 17 L 13 17 L 13 16 L 13 13 L 16 13 L 17 13 L 17 12 L 12 12 z M 6 13 L 9 13 L 9 16 L 6 16 L 6 13 z M 3 15 L 3 19 L 4 19 L 7 19 L 7 18 L 4 18 L 4 15 L 3 15 z "
     class="ColorScheme-Text"
     />
    <path
     style="fill:#da4453;fill-opacity:1;stroke:none"
     d="M 14.707031 14 L 14 14.707031 L 15.792969 16.5 L 14 18.292969 L 14.707031 19 L 16.5 17.207031 L 18.292969 19 L 19 18.292969 L 17.207031 16.5 L 19 14.707031 L 18.292969 14 L 16.5 15.792969 L 14.707031 14 z "
     />
</svg>
